img/logo.svg

<svg fill="none" height="203" viewBox="0 0 168 203" width="168" xmlns="http://www.w3.org/2000/svg"><g fill="#fff"><path d="m87.2168 99.1086s-57.1032 7.1374-56.5074-24.6281c.7009-37.4742 41.2529-66.4862 73.1236-74.4805 0 0-35.7807 6.58064-60.0268 22.7367-24.2461 16.1561-43.8062 38.6662-43.8062 57.7136s19.7603 28.2777 28.7519 29.8147c8.9915 1.537 27.7656 2.502 58.4649-11.1564z"/><path d="m5.3515 203s49.4734-17.52 88.7688-52.522c39.2957-35.002 46.3297-88.9766-34.5443-73.4953 0 0 33.0824-13.5012 56.973-13.5012 23.891 0 51.451 4.4331 51.451 31.6817.02 37.0358-71.3765 103.9508-162.6485 107.8368z"/><path d="m150.343 14.8312c5.272 8.9843 1.111 21.0571-9.292 26.9629s-23.105 3.4184-28.376-5.566c-5.272-8.9843-.922-20.7369 9.287-26.96287 8.881-5.4182 23.109-3.41839 28.381 5.56597z"/></g></svg>

<svg width="168" height="203" viewBox="0 0 168 203" fill="none" xmlns="http://www.w3.org/2000/svg">
<path d="M87.2168 99.1086C87.2168 99.1086 30.1136 106.246 30.7094 74.4805C31.4103 37.0063 71.9623 7.9943 103.833 0C103.833 0 68.0523 6.58064 43.8062 22.7367C19.5601 38.8928 0 61.4029 0 80.4503C0 99.4977 19.7603 108.728 28.7519 110.265C37.7434 111.802 56.5175 112.767 87.2168 99.1086Z" fill="white"/>
<path d="M5.3515 203C5.3515 203 54.8249 185.48 94.1203 150.478C133.416 115.476 140.45 61.5014 59.576 76.9827C59.576 76.9827 92.6584 63.4815 116.549 63.4815C140.44 63.4815 168 67.9146 168 95.1632C168.02 132.199 96.6235 199.114 5.3515 203Z" fill="white"/>
<path d="M150.343 14.8312C155.615 23.8155 151.454 35.8883 141.051 41.7941C130.648 47.6999 117.946 45.2125 112.675 36.2281C107.403 27.2438 111.753 15.4912 121.962 9.26523C130.843 3.84703 145.071 5.84684 150.343 14.8312Z" fill="white"/>
</svg>
